lib/assets/images/clock.svg

<svg xmlns="http://www.w3.org/2000/svg" fill="none" viewBox="0 0 149 144"><path fill="#26518d" d="M49.78203 144c-1.151 0-2.375-.504-3.166-1.439l-6.621-7.269c-1.439-1.583-1.511-4.03-.072-5.685l7.412-8.635-8.132-10.363c-1.439-1.871-1.151-4.606.72-6.045s4.606-1.152 6.045.719l10.363 13.17c1.295 1.583 1.223 3.886-.144 5.469l-7.196 8.42 4.101 4.462c1.584 1.727 1.512 4.461-.287 6.117-.936.719-1.943 1.079-3.023 1.079zM100.01303 131.262c-.432 0-.864-.072-1.295-.216l-9.428-3.022c-1.439-.432-2.59-1.655-2.878-3.166l-2.663-11.731-13.457-5.397c-2.231-.863-3.31-3.382-2.375-5.613.864-2.231 3.382-3.3104 5.613-2.3749l15.544 6.1889c1.296.504 2.303 1.655 2.591 3.094l2.591 11.515 7.052 2.231c2.303.719 3.527 3.166 2.807 5.397-.576 1.943-2.303 3.094-4.102 3.094zM109.15203 108.666c-.215 0-.431 0-.647-.072l-11.443-1.871c-1.511-.288-2.734-1.368-3.094-2.879l-7.556-31.952c-.504-2.015.791-4.1019 2.806-4.6057 2.015-.5037 4.102.7916 4.606 2.8066l6.981 29.5053 8.923 1.5108c2.087.36 3.454 2.303 3.095 4.39-.216 1.871-1.8 3.167-3.671 3.167zM4.30103 112.264c-1.871 0-3.598-1.224-4.102-3.095-.72-2.302.576-4.677 2.878-5.397l9.212-2.806 2.95-25.1159c.288-2.3748 2.447-4.03 4.822-3.8141 2.375.2879 4.03 2.4468 3.814 4.8216l-3.238 27.9224c-.216 1.727-1.368 3.166-3.023 3.598l-11.946 3.598c-.504.216-.935.288-1.367.288zM67.70103 84.8457l-11.946-.7916c-7.412.5757-14.609-1.6552-20.366-6.4768-5.541-4.6057-9.067-11.0824-10.003-18.2069l-13.241-23.8201-.072-.9355c-.72-7.5562 1.583-14.8966 6.405-20.7257 4.821-5.82904 11.658-9.42724 19.142-10.07491l22.741-2.08696c15.544-1.43928 29.361 10.07497 30.8 25.61917l.072.7197-7.7 30.5127c.576 6.2609 1.008 12.1619-.647 16.7676-2.087 5.6132-6.909 8.7077-14.825 9.4273zm-12.018-9.4273 11.946.7916c7.772-.7916 8.636-2.8786 7.269-17.4873l-.072-.7196 7.7-30.4408c-1.368-10.4348-10.723-18.06296-21.302-17.0555l-22.74 2.087c-5.254.5037-9.931 2.9505-13.314 7.0525-3.166 3.8141-4.749 8.5637-4.533 13.5292l13.241 23.7481.072.9356c1.008 10.7946 10.579 18.7826 21.373 17.7751z"/><path fill="#7f95b9" d="M55.75503 115.142c24.046 0 43.538-19.4923 43.538-43.5379 0-24.0455-19.492-43.5382-43.538-43.5382-24.045 0-43.538 19.4927-43.538 43.5382 0 24.0456 19.493 43.5379 43.538 43.5379z"/><path fill="#eee" d="M57.91403 105.787c18.481 0 33.463-14.9819 33.463-33.4631 0-18.4813-14.982-33.4633-33.463-33.4633s-33.463 14.982-33.463 33.4633c0 18.4812 14.982 33.4631 33.463 33.4631z"/><path fill="#e6d165" d="m32.29503 32.168-24.756 20.4377c-.575.5038-1.583.072-2.087-.7916l-2.59-4.3898c-3.743-6.3328-3.455-13.3133.719-16.6956l7.988-6.6207c4.174-3.4543 11.011-2.3748 16.552 2.4468l3.814 3.3823c.72.7196.936 1.7991.36 2.2309zM95.55103 44.114l-22.884-15.6882c-.504-.3598-.432-1.2953.144-1.943l3.022-3.1664c4.39-4.6057 10.219-6.045 14.033-3.3823l7.412 5.1094c3.814 2.6627 4.606 8.6357 1.871 14.3209l-1.871 3.958c-.359.7196-1.223 1.1514-1.727.7916z"/><path fill="#e6d165" d="M6.10003 28.0659c2.186 0 3.958-1.772 3.958-3.958 0-2.1859-1.772-3.958-3.958-3.958s-3.958 1.7721-3.958 3.958c0 2.186 1.772 3.958 3.958 3.958zM95.33503 23.4603c1.908 0 3.455-1.5465 3.455-3.4543 0-1.9077-1.547-3.4542-3.455-3.4542-1.907 0-3.454 1.5465-3.454 3.4542 0 1.9078 1.547 3.4543 3.454 3.4543z"/><path fill="#e9e7e5" d="M139.23303 20.8696h-15.544c-.863 1.3673-2.159 2.5187-3.67 3.0944l-1.223.5038.144-.4318c.359-1.0795.143-2.2309-.504-3.1664-4.966 0-8.996-4.03-8.996-8.9955V9.06747c-.072-5.03748 3.958-9.06747 8.924-9.06747h20.869c4.966 0 8.996 4.02998 8.996 8.9955v2.8066c0 5.0375-4.03 9.0675-8.996 9.0675z"/><path fill="#7f95b9" d="M120.88303 12.9535c1.192 0 2.158-.9666 2.158-2.159 0-1.1923-.966-2.15888-2.158-2.15888-1.193 0-2.159.96658-2.159 2.15888 0 1.1924.966 2.159 2.159 2.159zM129.51803 12.9535c1.193 0 2.159-.9666 2.159-2.159 0-1.1923-.966-2.15888-2.159-2.15888-1.192 0-2.159.96658-2.159 2.15888 0 1.1924.967 2.159 2.159 2.159zM138.15403 12.9535c1.192 0 2.159-.9666 2.159-2.159 0-1.1923-.967-2.15888-2.159-2.15888-1.192 0-2.159.96658-2.159 2.15888 0 1.1924.967 2.159 2.159 2.159z"/><path stroke="#7f95b9" stroke-miterlimit="10" stroke-width="2.87856" d="m61.51203 73.0435-5.397 11.1544M50.35803 56.1318l11.514 16.5518"/><path stroke="#7f95b9" stroke-miterlimit="10" stroke-width=".71964" d="m61.51203 72.6836 11.155-23.0284"/><path fill="#26518d" d="M61.87203 77.0015c2.385 0 4.318-1.9331 4.318-4.3178s-1.933-4.3179-4.318-4.3179-4.318 1.9332-4.318 4.3179c0 2.3847 1.933 4.3178 4.318 4.3178z"/></svg>

<svg width="149" height="144" viewBox="0 0 149 144" fill="none" xmlns="http://www.w3.org/2000/svg">
<rect width="149" height="144" fill="#E5E5E5"/>
<rect width="375" height="2499" transform="translate(-114 -2249)" fill="white"/>
<path d="M49.7821 144C48.6307 144 47.4073 143.496 46.6157 142.561L39.995 135.292C38.5557 133.709 38.4838 131.262 39.923 129.607L47.3353 120.972L39.2034 110.609C37.7641 108.738 38.052 106.003 39.923 104.564C41.7941 103.125 44.5287 103.412 45.968 105.283L56.3308 118.453C57.6262 120.036 57.5542 122.339 56.1869 123.922L48.9905 132.342L53.0925 136.804C54.6757 138.531 54.6037 141.265 52.8046 142.921C51.8691 143.64 50.8616 144 49.7821 144Z" fill="#26518D"/>
<path d="M100.013 131.262C99.5812 131.262 99.1494 131.19 98.7177 131.046L89.2904 128.024C87.8511 127.592 86.6997 126.369 86.4118 124.858L83.7491 113.127L70.2919 107.73C68.061 106.867 66.9815 104.348 67.9171 102.117C68.7806 99.886 71.2994 98.8066 73.5303 99.7421L89.0745 105.931C90.3698 106.435 91.3773 107.586 91.6652 109.025L94.2559 120.54L101.308 122.771C103.611 123.49 104.835 125.937 104.115 128.168C103.539 130.111 101.812 131.262 100.013 131.262Z" fill="#26518D"/>
<path d="M109.152 108.666C108.937 108.666 108.721 108.666 108.505 108.594L97.0625 106.723C95.5512 106.435 94.3279 105.355 93.968 103.844L86.4118 71.892C85.9081 69.877 87.2034 67.7901 89.2184 67.2863C91.2334 66.7826 93.3203 68.0779 93.8241 70.0929L100.805 99.5982L109.728 101.109C111.815 101.469 113.182 103.412 112.823 105.499C112.607 107.37 111.023 108.666 109.152 108.666Z" fill="#26518D"/>
<path d="M4.30087 112.264C2.4298 112.264 0.702668 111.04 0.19892 109.169C-0.52072 106.867 0.774632 104.492 3.07748 103.772L12.2889 100.966L15.2394 75.8501C15.5273 73.4753 17.6862 71.8201 20.061 72.036C22.4358 72.3239 24.091 74.4828 23.8751 76.8576L20.6367 104.78C20.4208 106.507 19.2694 107.946 17.6142 108.378L5.66818 111.976C5.16444 112.192 4.73265 112.264 4.30087 112.264Z" fill="#26518D"/>
<path d="M67.7012 84.8457L55.7551 84.0541C48.3428 84.6298 41.1464 82.3989 35.3893 77.5773C29.8481 72.9716 26.3219 66.4949 25.3863 59.3704L12.1449 35.5503L12.073 34.6148C11.3533 27.0586 13.6562 19.7182 18.4778 13.8891C23.2994 8.06006 30.1359 4.46186 37.6202 3.81419L60.3608 1.72723C75.9051 0.287948 89.7221 11.8022 91.1614 27.3464L91.2334 28.0661L83.5332 58.5788C84.109 64.8397 84.5407 70.7407 82.8856 75.3464C80.7986 80.9596 75.977 84.0541 68.061 84.7737L67.7012 84.8457ZM55.6832 75.4184L67.6292 76.21C75.4013 75.4184 76.2649 73.3314 74.8976 58.7227L74.8256 58.0031L82.5257 27.5623C81.1584 17.1275 71.8031 9.49934 61.2244 10.5068L38.4838 12.5938C33.2304 13.0975 28.5527 15.5443 25.1704 19.6463C22.004 23.4604 20.4208 28.21 20.6367 33.1755L33.8781 56.9236L33.95 57.8592C34.9575 68.6538 44.5287 76.6418 55.3233 75.6343L55.6832 75.4184Z" fill="#26518D"/>
<path d="M55.7551 115.142C79.8006 115.142 99.2934 95.6497 99.2934 71.6041C99.2934 47.5586 79.8006 28.0659 55.7551 28.0659C31.7096 28.0659 12.2169 47.5586 12.2169 71.6041C12.2169 95.6497 31.7096 115.142 55.7551 115.142Z" fill="#7F95B9"/>
<path d="M57.9141 105.787C76.3953 105.787 91.3773 90.8051 91.3773 72.3239C91.3773 53.8426 76.3953 38.8606 57.9141 38.8606C39.4328 38.8606 24.4508 53.8426 24.4508 72.3239C24.4508 90.8051 39.4328 105.787 57.9141 105.787Z" fill="#EEEEEE"/>
<path d="M32.2949 32.168L7.53924 52.6057C6.96353 53.1095 5.95603 52.6777 5.45229 51.8141L2.86158 47.4243C-0.880546 41.0915 -0.59269 34.111 3.58122 30.7287L11.5692 24.108C15.7431 20.6537 22.5797 21.7332 28.121 26.5548L31.935 29.9371C32.6547 30.6567 32.8706 31.7362 32.2949 32.168Z" fill="#E6D165"/>
<path d="M95.5512 44.114L72.6667 28.4258C72.1629 28.066 72.2349 27.1305 72.8106 26.4828L75.8331 23.3164C80.2229 18.7107 86.052 17.2714 89.8661 19.9341L97.2784 25.0435C101.092 27.7062 101.884 33.6792 99.1494 39.3644L97.2784 43.3224C96.9186 44.042 96.055 44.4738 95.5512 44.114Z" fill="#E6D165"/>
<path d="M6.09996 28.0659C8.28592 28.0659 10.058 26.2939 10.058 24.1079C10.058 21.922 8.28592 20.1499 6.09996 20.1499C3.91401 20.1499 2.14194 21.922 2.14194 24.1079C2.14194 26.2939 3.91401 28.0659 6.09996 28.0659Z" fill="#E6D165"/>
<path d="M95.3353 23.4603C97.2431 23.4603 98.7896 21.9138 98.7896 20.006C98.7896 18.0983 97.2431 16.5518 95.3353 16.5518C93.4276 16.5518 91.8811 18.0983 91.8811 20.006C91.8811 21.9138 93.4276 23.4603 95.3353 23.4603Z" fill="#E6D165"/>
<path d="M139.233 20.8696H123.689C122.826 22.2369 121.53 23.3883 120.019 23.964L118.796 24.4678L118.94 24.036C119.299 22.9565 119.083 21.8051 118.436 20.8696C113.47 20.8696 109.44 16.8396 109.44 11.8741V9.06747C109.368 4.02999 113.398 0 118.364 0H139.233C144.199 0 148.229 4.02998 148.229 8.9955V11.8021C148.229 16.8396 144.199 20.8696 139.233 20.8696Z" fill="#E9E7E5"/>
<path d="M120.883 12.9535C122.075 12.9535 123.041 11.9869 123.041 10.7945C123.041 9.6022 122.075 8.63562 120.883 8.63562C119.69 8.63562 118.724 9.6022 118.724 10.7945C118.724 11.9869 119.69 12.9535 120.883 12.9535Z" fill="#7F95B9"/>
<path d="M129.518 12.9535C130.711 12.9535 131.677 11.9869 131.677 10.7945C131.677 9.6022 130.711 8.63562 129.518 8.63562C128.326 8.63562 127.359 9.6022 127.359 10.7945C127.359 11.9869 128.326 12.9535 129.518 12.9535Z" fill="#7F95B9"/>
<path d="M138.154 12.9535C139.346 12.9535 140.313 11.9869 140.313 10.7945C140.313 9.6022 139.346 8.63562 138.154 8.63562C136.962 8.63562 135.995 9.6022 135.995 10.7945C135.995 11.9869 136.962 12.9535 138.154 12.9535Z" fill="#7F95B9"/>
<path d="M61.5123 73.0435L56.115 84.1979" stroke="#7F95B9" stroke-width="2.87856" stroke-miterlimit="10"/>
<path d="M50.3578 56.1318L61.8721 72.6836" stroke="#7F95B9" stroke-width="2.87856" stroke-miterlimit="10"/>
<path d="M61.5123 72.6836L72.6667 49.6552" stroke="#7F95B9" stroke-width="0.71964" stroke-miterlimit="10"/>
<path d="M61.8721 77.0015C64.2568 77.0015 66.1899 75.0684 66.1899 72.6837C66.1899 70.299 64.2568 68.3658 61.8721 68.3658C59.4874 68.3658 57.5542 70.299 57.5542 72.6837C57.5542 75.0684 59.4874 77.0015 61.8721 77.0015Z" fill="#26518D"/>
</svg>
